X: 1
T:Madness !
% Nottingham Music Database
S:Chris Dewhurst (1983), via PR
M:4/4
L:1/4
K:F
[A,C]"C7"[B,C] [=B,_E]|"F"[C3/2F3/2][C/2F/2] [DF][CF]|"F"[A2c2] [A2c2]|"C7""g"[C3/2E3/2][C/2E/2] " ""c"[DF][CE]|\
"C7""g"[B2d2] -" ""c"[B2d2]|"Gm"[C3/2E3/2][C/2E/2] [DG][CE]|"C7"[c3/2e3/2][c/2e/2] [=B_e][ce]|"F"[Ac][FA] "Dm"[EG][DF]|"Gm"[CE][A,C] "C7"[B,C][=B,_E]|
"F"[C3/2F3/2][C/2F/2] [DF][CF]|"F"[A2c2] [A2c2]|"C7""g"[C3/2E3/2][C/2E/2] " ""c"[DF][CE]|"Gm"[B2d2] -"C7"[B2c2]|\
"F"[c3/2f3/2][A/2c/2] "F7"[GB][FA]|"Bb"[DF][FB] [FB][GB]|"F""c"[A2c2] "C7"[G2B2]|"F"[FA][FA] "F7"[GB][Ac]||
"Bb"[B3/2d3/2][B/2d/2] [Bd][ce]|[df][DF] [FB][Bd]|"F"[A3/2c3/2][A/2c/2] [Ac][Bd]|"Am"[c3e3][Ac]|"Dm"[F3/2A3/2][F/2A/2] [FA][GB]|"G7"[Ac][G=B] [Ac][=Bd]|\
"C7"[df][ce] "Gm"[Bd][GB]|
"C"[EG][_EG] "C7"[DF][_DF]|"F"[C3/2F3/2][C/2F/2] [DF][CF]|"F"[A2c2] [A2c2]|"C7""g"[C3/2E3/2][C/2E/2] " ""c"[DF][CE]|"Gm"[B2d2] -"C7"[B2c2]|\
"F"[c3/2f3/2][A/2c/2] "F7"[GB][FA]|"Bb"[DF][FB] [FB][GB]|"F""c"[A2c2] "C7"[G2B2]|"F"[FA]||


